cssgg/band-aid.svg

<svg
  width="24"
  height="24"
  viewBox="0 0 24 24"
  fill="none"
  xmlns="http://www.w3.org/2000/svg"
>
  <path
    d="M11.9389 9.76478C11.7055 10.2653 11.1105 10.4819 10.61 10.2485C10.1094 10.0151 9.89288 9.42008 10.1263 8.91954C10.3597 8.419 10.9547 8.20244 11.4552 8.43585C11.9558 8.66925 12.1723 9.26423 11.9389 9.76478Z"
    fill="currentColor"
  />
  <path
    d="M8.9195 13.8737C9.42004 14.1071 10.015 13.8905 10.2484 13.39C10.4818 12.8895 10.2653 12.2945 9.76474 12.0611C9.2642 11.8277 8.66922 12.0442 8.43581 12.5448C8.20241 13.0453 8.41896 13.6403 8.9195 13.8737Z"
    fill="currentColor"
  />
  <path
    d="M13.8737 15.0805C13.6403 15.581 13.0453 15.7976 12.5447 15.5642C12.0442 15.3308 11.8276 14.7358 12.061 14.2352C12.2944 13.7347 12.8894 13.5181 13.39 13.7516C13.8905 13.985 14.1071 14.5799 13.8737 15.0805Z"
    fill="currentColor"
  />
  <path
    d="M14.2352 11.9389C14.7357 12.1723 15.3307 11.9558 15.5641 11.4552C15.7975 10.9547 15.581 10.3597 15.0804 10.1263C14.5799 9.89292 13.9849 10.1095 13.7515 10.61C13.5181 11.1106 13.7347 11.7055 14.2352 11.9389Z"
    fill="currentColor"
  />
  <path
    fill-rule="evenodd"
    clip-rule="evenodd"
    d="M17.0714 1.12432C14.0682 -0.276119 10.4983 1.02321 9.09783 4.02645L4.02641 14.9021C2.62598 17.9054 3.92531 21.4753 6.92855 22.8757C9.93179 24.2761 13.5017 22.9768 14.9021 19.9736L19.9735 9.09787C21.374 6.09463 20.0746 2.52475 17.0714 1.12432ZM13.9347 17.3157L17.3157 10.0653L10.0652 6.6843L6.68427 13.9348L13.9347 17.3157ZM13.0895 19.1283L5.83903 15.7474C4.90541 17.7495 5.77163 20.1295 7.77379 21.0631C9.77595 21.9967 12.1559 21.1305 13.0895 19.1283ZM16.2262 2.93693C18.2283 3.87055 19.0945 6.25047 18.1609 8.25264L10.9104 4.87169C11.8441 2.86953 14.224 2.00331 16.2262 2.93693Z"
    fill="currentColor"
  />
</svg>

<svg viewBox="0 0 24 24" xmlns="http://www.w3.org/2000/svg"><g><path d="M11.93 9.76c-.24.5-.83.71-1.33.48 -.51-.24-.72-.83-.49-1.33 .23-.51.82-.72 1.32-.49 .5.23.71.82.48 1.32Z"/><path d="M8.91 13.87c.5.23 1.09.01 1.32-.49 .23-.51.01-1.1-.49-1.33 -.51-.24-1.1-.02-1.33.48 -.24.5-.02 1.09.48 1.32Z"/><path d="M13.87 15.08c-.24.5-.83.71-1.33.48 -.51-.24-.72-.83-.49-1.33 .23-.51.82-.72 1.32-.49 .5.23.71.82.48 1.32Z"/><path d="M14.23 11.93c.5.23 1.09.01 1.32-.49 .23-.51.01-1.1-.49-1.33 -.51-.24-1.1-.02-1.33.48 -.24.5-.02 1.09.48 1.32Z"/><path fill-rule="evenodd" d="M17.07 1.12c-3.01-1.41-6.58-.11-7.98 2.9L4.01 14.89c-1.41 3-.11 6.57 2.9 7.97 3 1.4 6.57.1 7.97-2.91l5.07-10.88c1.4-3.01.1-6.58-2.91-7.98Zm-3.14 16.19l3.38-7.26 -7.26-3.39 -3.39 7.25 7.25 3.38Zm-.85 1.81l-7.26-3.39c-.94 2-.07 4.38 1.93 5.31 2 .93 4.38.06 5.31-1.94Zm3.13-16.2c2 .93 2.86 3.31 1.93 5.31l-7.26-3.39c.93-2.01 3.31-2.87 5.31-1.94Z"/></g></svg>
